web/themes/custom/votegov/img/logo.svg

<svg xmlns="http://www.w3.org/2000/svg" viewBox="0 0 205 72" fill="none">
  <path d="M136.543 44.9783H136.578C138.22 44.9783 139.549 46.3075 139.549 47.9488C139.549 49.5902 138.22 50.9194 136.578 50.9194H136.543C134.902 50.9194 133.573 49.5902 133.573 47.9488C133.573 46.3075 134.902 44.9783 136.543 44.9783Z" fill="#1F4280"/>
  <path d="M95.8081 30.4427H99.3929V24.0938H105.52V30.4427H109.891V34.6619H105.52V43.6642C105.52 45.3811 106.119 46.3931 108.471 46.3931C108.919 46.3931 109.478 46.3528 109.891 46.2823V50.5015C108.959 50.7231 107.575 50.9144 106.19 50.9144C101.482 50.9144 99.3929 48.7494 99.3929 44.8625V34.6669H95.8081V30.4477V30.4427Z" fill="#1F4280"/>
  <path d="M73.6598 30.4426L66.1881 50.5015H59.6529L52.1812 30.4426H58.6459L63.0161 44.2633H63.0917L67.4619 30.4426H73.6649H73.6598Z" fill="#1F4280"/>
  <path d="M73.9294 40.5274C73.9294 34.5511 77.5898 30.0298 84.4623 30.0298C91.3349 30.0298 94.9953 34.4756 94.9953 40.4519C94.9953 46.4283 91.3349 50.9093 84.4623 50.9093C77.5898 50.9093 73.9294 46.4635 73.9294 40.5224V40.5274ZM80.2029 40.4922C80.2029 43.8152 81.5875 46.3578 84.4221 46.3578C87.2567 46.3578 88.7168 43.8202 88.7168 40.4922C88.7168 37.1642 87.3322 34.5914 84.4976 34.5914C81.663 34.5914 80.2029 37.134 80.2029 40.4922Z" fill="#1F4280"/>
  <path d="M130.527 47.3648C128.735 49.4945 126.192 50.9143 122.048 50.9143C114.949 50.9143 111.365 46.6951 111.365 40.5274C111.365 34.3598 114.914 30.0298 121.525 30.0298C128.136 30.0298 131.237 34.3245 131.237 39.8931C131.237 40.7137 131.202 41.6099 131.086 42.2443H117.562C117.9 44.8222 119.169 46.4635 122.23 46.4635C123.947 46.4635 125.517 45.7889 126.751 44.1475L130.522 47.3597L130.527 47.3648ZM125.22 38.5488C124.994 36.0464 124.027 34.4756 121.485 34.4756C118.942 34.4756 117.824 36.0464 117.562 38.5488H125.22Z" fill="#1F4280"/>
  <path d="M159.31 48.6687C159.31 54.8213 155.434 58.7334 149.915 58.7334C146.859 58.7334 144.548 57.8372 142.831 56.7597L143.914 54.8969C145.59 56.0146 147.529 56.8 150.026 56.8C153.978 56.8 157.07 53.8949 157.07 48.563V45.8442H156.994C155.539 48.5278 152.966 50.2447 149.764 50.2447C144.397 50.2447 141.19 45.7687 141.19 40.2555C141.19 34.7423 144.468 30.0398 149.986 30.0398C153.339 30.0398 155.69 31.8272 157.07 34.2892H157.145L157.221 30.4476H159.31V48.6738V48.6687ZM157.15 40.1699C157.15 35.5479 154.653 32.0084 150.293 32.0084C145.933 32.0084 143.435 35.699 143.435 40.1699C143.435 44.6409 145.782 48.2962 150.293 48.2962C154.804 48.2962 157.15 44.6056 157.15 40.1699Z" fill="#1F4280"/>
  <path d="M162.241 40.4318C162.241 34.6921 165.78 30.0298 171.822 30.0298C177.864 30.0298 181.363 34.687 181.363 40.4318C181.363 46.1765 177.859 50.869 171.782 50.869C165.705 50.869 162.241 46.1715 162.241 40.4318ZM164.476 40.4721C164.476 45.0588 167.084 48.9356 171.782 48.9356C176.479 48.9356 179.128 45.0941 179.128 40.4721C179.128 35.8501 176.555 31.9732 171.822 31.9732C167.089 31.9732 164.476 35.8148 164.476 40.4721Z" fill="#1F4280"/>
  <path d="M200.5 30.4426L192.449 50.4612H190.103L182.012 30.4426H184.434L191.291 47.8129H191.367L198.149 30.4426H200.495H200.5Z" fill="#1F4280"/>
  <path d="M44.5534 58.8427H0.5V18.386H28.6204L27.23 21.4009H3.51493V55.8278H41.5384V30.5024H44.5534V58.8427Z" fill="#1F4280"/>
  <path d="M44.9077 12.25H34.6783L33.2808 15.2862H43.5102L44.9077 12.25Z" fill="#DE3245"/>
  <path d="M27.6941 27.4241H37.9165L39.314 24.3879H29.0916L27.6941 27.4241Z" fill="#DE3245"/>
  <path d="M30.4836 21.3587H40.7131L42.1106 18.3225H31.8812L30.4836 21.3587Z" fill="#DE3245"/>
  <path d="M24.8972 33.4964H35.1196L36.5171 30.4602H26.2947L24.8972 33.4964Z" fill="#DE3245"/>
  <path d="M22.2302 39.6109H32.4597L33.8572 36.5747H23.6348L22.2302 39.6109Z" fill="#DE3245"/>
  <path d="M19.303 45.6343H29.5324L30.93 42.6052H20.7005L19.303 45.6343Z" fill="#DE3245"/>
  <path d="M16.5059 51.7066H26.7353L28.1328 48.6704H17.9034L16.5059 51.7066Z" fill="#DE3245"/>
  <path d="M16.8732 30.4602H6.65088L14.8302 48.0957L19.9236 37.0363L16.8732 30.4602Z" fill="#1F4280"/>
</svg>

<svg xmlns="http://www.w3.org/2000/svg" aria-labelledby="vote-logo" role="img" width="200" height="70" viewBox="0 0 200 70" fill="none">
  <path fill="#1F4280" d="M136.5,45L136.5,45c1.7,0,3,1.3,3,3c0,1.6-1.3,3-3,3h0c-1.6,0-3-1.3-3-3C133.6,46.3,134.9,45,136.5,45z"/>
  <path fill="#1F4280" d="M95.8,30.4h3.6v-6.3h6.1v6.3h4.4v4.2h-4.4v9c0,1.7,0.6,2.7,3,2.7c0.4,0,1,0,1.4-0.1v4.2
	c-0.9,0.2-2.3,0.4-3.7,0.4c-4.7,0-6.8-2.2-6.8-6.1V34.7h-3.6V30.4L95.8,30.4z"/>
  <path fill="#1F4280" d="M73.7,30.4l-7.5,20.1h-6.5l-7.5-20.1h6.5L63,44.3h0.1l4.4-13.8H73.7L73.7,30.4z"/>
  <path fill="#1F4280" d="M73.9,40.5c0-6,3.7-10.5,10.5-10.5C91.3,30,95,34.5,95,40.5c0,6-3.7,10.5-10.5,10.5
	C77.6,50.9,73.9,46.5,73.9,40.5L73.9,40.5z M80.2,40.5c0,3.3,1.4,5.9,4.2,5.9c2.8,0,4.3-2.5,4.3-5.9c0-3.3-1.4-5.9-4.2-5.9
	C81.7,34.6,80.2,37.1,80.2,40.5z"/>
  <path fill="#1F4280" d="M130.5,47.4c-1.8,2.1-4.3,3.5-8.5,3.5c-7.1,0-10.7-4.2-10.7-10.4c0-6.2,3.5-10.5,10.2-10.5s9.7,4.3,9.7,9.9
	c0,0.8,0,1.7-0.2,2.4h-13.5c0.3,2.6,1.6,4.2,4.7,4.2c1.7,0,3.3-0.7,4.5-2.3L130.5,47.4L130.5,47.4z M125.2,38.5
	c-0.2-2.5-1.2-4.1-3.7-4.1c-2.5,0-3.7,1.6-3.9,4.1H125.2z"/>
  <path fill="#1F4280" d="M159.3,48.7c0,6.2-3.9,10.1-9.4,10.1c-3.1,0-5.4-0.9-7.1-2l1.1-1.9c1.7,1.1,3.6,1.9,6.1,1.9c4,0,7-2.9,7-8.2
	v-2.7H157c-1.5,2.7-4,4.4-7.2,4.4c-5.4,0-8.6-4.5-8.6-10S144.5,30,150,30c3.4,0,5.7,1.8,7.1,4.2h0.1l0.1-3.8h2.1V48.7L159.3,48.7z
	 M157.1,40.2c0-4.6-2.5-8.2-6.9-8.2s-6.9,3.7-6.9,8.2c0,4.5,2.3,8.1,6.9,8.1S157.1,44.6,157.1,40.2z"/>
  <path fill="#1F4280" d="M162.2,40.4c0-5.7,3.5-10.4,9.6-10.4c6,0,9.5,4.7,9.5,10.4c0,5.7-3.5,10.4-9.6,10.4S162.2,46.2,162.2,40.4z
	 M164.5,40.5c0,4.6,2.6,8.5,7.3,8.5c4.7,0,7.3-3.8,7.3-8.5s-2.6-8.5-7.3-8.5C167.1,32,164.5,35.8,164.5,40.5z"/>
  <path fill="#1F4280" d="M200.5,30.4l-8.1,20h-2.3l-8.1-20h2.4l6.9,17.4h0.1l6.8-17.4H200.5L200.5,30.4z"/>
  <path fill="#1F4280" d="M44.6,58.8H0.5V18.4h28.1l-1.4,3H3.5v34.4h38V30.5h3V58.8z"/>
  <path fill="#DE3245" d="M44.9,12.2H34.7l-1.4,3h10.2L44.9,12.2z M27.7,27.4h10.2l1.4-3H29.1L27.7,27.4z M30.5,21.4h10.2l1.4-3H31.9
	L30.5,21.4z M24.9,33.5h10.2l1.4-3H26.3L24.9,33.5z M22.2,39.6h10.2l1.4-3H23.6L22.2,39.6z M19.3,45.6h10.2l1.4-3H20.7L19.3,45.6z
	 M16.5,51.7h10.2l1.4-3H17.9L16.5,51.7z"/>
  <path fill="#1F4280" d="M16.9,30.5H6.7l8.2,17.6L19.9,37L16.9,30.5z"/>
</svg>
